X:227
%%etbk:tnset id:70,pos:3,rep:3x,ant:
%%etbk:wsite http://www.thesession.org/tunes/display/1805
%%etbk:pldat 2014-04-06T15:58,2014-02-26T17:51,2014-02-18T17:39,2013-11-19T15:14,2013-09-02T18:02,2013-05-06T18:03,2013-05-05T15:14
T: Pay The Reckoning
Z: Piano Box Version by Martin Fleischmann
H: Created 2013-02-19 /  Last Modified 2013-05-05
M: 6/8
L: 1/8
R: jig
K: Gmaj
|: "G"!1!G2!5!e !4!d!3!B!1!G| !3!BBB !4!d!3!B!2!A | !1!G2!5!e !4!d!3!B!1!G | "D"!2!AAA !3!B!1!G!2!E |
"G"!1!G2e !4!dBG| !3!B2!3!B !1!de!4!g | !5!ag!2!e !1!d!3!B!1!G |1 "D"!2!AAA !3!B!1!G!2!E:|2 "D"!2!A2A !3!B!1!GG||
|: "G"!4!g!1!G!4!g !3!fgf | !2!efe !1!def | !4!g2g !1!efg | "D"!4!a2a !5!b!3!g!1!e |
"G"!4!g!3!g!4!g !3!fgf | !2!efe !1!de!4!g | !5!ag!2!e !1!d!3!B!1!G |1 "D"!2!AAA !3!B!1!GG:|2 "D"!2!A2A !3!B!1!G!2!E||


